icons/1_Primary/Gemini.svg

<svg xmlns="http://www.w3.org/2000/svg" width="1024" height="1024" fill="none">
   <g clip-path="url(#a)">
      <path fill="#9ABEFF" d="M512 1024c282.77 0 512-229.23 512-512S794.77 0 512 0 0 229.23 0 512s229.23 512 512 512Z"/>
      <path fill="#fff" d="M726.5 413.3H454.9c9.8-67.2 67.3-117.2 135.8-117.2 68.4 0 125.9 50 135.8 117.2Zm-155.9 40.1v117.2H453.4V453.4h117.2Zm-1.5 157.3c-9.8 67.2-67.3 117.2-135.8 117.2-68.5 0-126-50-135.8-117.2h271.6Zm-271.6-40.1c8.8-59.4 56.3-107 115.8-115.7v115.7H297.5Zm429-117.2c-8.8 59.4-56.3 107-115.7 115.7V453.4h115.7ZM590.7 256c-90 0-166.7 69.3-176.3 158.4-89.2 9.5-158.4 86.2-158.4 176.3 0 97.8 79.6 177.4 177.4 177.4 90 0 166.8-69.3 176.3-158.4 89.1-9.6 158.4-86.3 158.4-176.3C768 335.5 688.5 256 590.7 256Z"/>
   </g>
   <defs>
      <clipPath id="a">
         <path fill="#fff" d="M0 0h1024v1024H0z"/>
      </clipPath>
   </defs>
</svg>

<svg width="1024" height="1024" viewBox="0 0 1024 1024" fill="none" xmlns="http://www.w3.org/2000/svg">
<g clip-path="url(#clip0_2_2274)">
<path d="M512 1024C794.77 1024 1024 794.77 1024 512C1024 229.23 794.77 0 512 0C229.23 0 0 229.23 0 512C0 794.77 229.23 1024 512 1024Z" fill="#9ABEFF"/>
<path d="M726.5 413.3H454.9C464.7 346.1 522.2 296.1 590.7 296.1C659.1 296.1 716.6 346.1 726.5 413.3ZM570.6 453.4V570.6H453.4V453.4H570.6ZM569.1 610.7C559.3 677.9 501.8 727.9 433.3 727.9C364.8 727.9 307.3 677.9 297.5 610.7H569.1ZM297.5 570.6C306.3 511.2 353.8 463.6 413.3 454.9V570.6H297.5ZM726.5 453.4C717.7 512.8 670.2 560.4 610.8 569.1V453.4H726.5ZM590.7 256C500.7 256 424 325.3 414.4 414.4C325.2 423.9 256 500.6 256 590.7C256 688.5 335.6 768.1 433.4 768.1C523.4 768.1 600.2 698.8 609.7 609.7C698.8 600.1 768.1 523.4 768.1 433.4C768 335.5 688.5 256 590.7 256Z" fill="white"/>
</g>
<defs>
<clipPath id="clip0_2_2274">
<rect width="1024" height="1024" fill="white"/>
</clipPath>
</defs>
</svg>
